X:3386
T:Cook in the Kitchen
R:double jig
M:6/8
Q:130
K:Em
DGG GAG|FDE F3|DGG GFG|A2d cAF|
DGD GAG|FDE F2d|cAG FGA|BGF G3:|
BDD BDD|ADD ADD|~G3 GFG|A2d cAF|
B2B {c}BAG|ABA A2d|cAG FGA|BGF G3:|
d2e f2g|a2g fed|cAG FGA|BAB cBc|
d2e f2g|a2g fed|cAG FGA|1 BGF G2A:|2 BGF G3||


